(Projekt back)
(Erstellt mit Estlcam Version 11 Build 11,221)
(Laufzeit ca. 00:01:13 Stunden)

(Benötigte Werkzeuge:)
(2mm)

M03 S30000
G00 Z5.0000


(Nr. 1 Ausschnitt: Ausschnitt 1)
G00 X55.0700 Y8.4863
G00 Z0.5000
G01 Z0.0000 F600 S30000
G01 Z-1.0000
G01 Y9.5463 F1200
G01 X61.1300
G01 Y8.4863
G01 X55.0700
G01 Z-2.0000 F600
G01 Y9.5463 F1200
G01 X61.1300
G01 Y8.4863
G01 X55.0700
G01 Z-3.0000 F600
G01 Y9.5463 F1200
G01 X61.1300
G01 Y8.4863
G01 X55.0700
G01 Z-4.0000 F600
G01 Y9.5463 F1200
G01 X61.1300
G01 Y8.4863
G01 X55.0700
G00 Z5.0000


(Nr. 2 Teil: Teil 1)
G00 X112.7000 Y-1.0000 Z5.0000
G00 Z0.5000
G01 Z0.0000 F600
G01 Z-1.0000
G03 X113.7000 Y0.0000 I0.0000 J1.0000 F1200
G01 Y4.0000
G01 X116.2000
G03 X117.2000 Y5.0000 I0.0000 J1.0000
G01 Y15.0000
G03 X116.2000 Y16.0000 I-1.0000 J0.0000
G01 X113.7000
G01 Y30.0000
G03 X112.7000 Y31.0000 I-1.0000 J0.0000
G01 X3.5000
G03 X2.5000 Y30.0000 I0.0000 J-1.0000
G01 Y16.0000
G01 X0.0000
G03 X-1.0000 Y15.0000 I0.0000 J-1.0000
G01 Y5.0000
G03 X0.0000 Y4.0000 I1.0000 J0.0000
G01 X2.5000
G01 Y0.0000
G03 X3.5000 Y-1.0000 I1.0000 J0.0000
G01 X112.7000
G01 Z-2.0000 F600
G03 X113.7000 Y0.0000 I0.0000 J1.0000 F1200
G01 Y4.0000
G01 X116.2000
G03 X117.2000 Y5.0000 I0.0000 J1.0000
G01 Y15.0000
G03 X116.2000 Y16.0000 I-1.0000 J0.0000
G01 X113.7000
G01 Y30.0000
G03 X112.7000 Y31.0000 I-1.0000 J0.0000
G01 X3.5000
G03 X2.5000 Y30.0000 I0.0000 J-1.0000
G01 Y16.0000
G01 X0.0000
G03 X-1.0000 Y15.0000 I0.0000 J-1.0000
G01 Y5.0000
G03 X0.0000 Y4.0000 I1.0000 J0.0000
G01 X2.5000
G01 Y0.0000
G03 X3.5000 Y-1.0000 I1.0000 J0.0000
G01 X112.7000
G01 Z-3.0000 F600
G03 X113.7000 Y0.0000 I0.0000 J1.0000 F1200
G01 Y4.0000
G01 X116.2000
G03 X117.2000 Y5.0000 I0.0000 J1.0000
G01 Y15.0000
G03 X116.2000 Y16.0000 I-1.0000 J0.0000
G01 X113.7000
G01 Y30.0000
G03 X112.7000 Y31.0000 I-1.0000 J0.0000
G01 X3.5000
G03 X2.5000 Y30.0000 I0.0000 J-1.0000
G01 Y16.0000
G01 X0.0000
G03 X-1.0000 Y15.0000 I0.0000 J-1.0000
G01 Y5.0000
G03 X0.0000 Y4.0000 I1.0000 J0.0000
G01 X2.5000
G01 Y0.0000
G03 X3.5000 Y-1.0000 I1.0000 J0.0000
G01 X112.7000
G01 Z-4.0000 F600
G03 X113.7000 Y0.0000 I0.0000 J1.0000 F1200
G01 Y4.0000
G01 X116.2000
G03 X117.2000 Y5.0000 I0.0000 J1.0000
G01 Y15.0000
G03 X116.2000 Y16.0000 I-1.0000 J0.0000
G01 X113.7000
G01 Y30.0000
G03 X112.7000 Y31.0000 I-1.0000 J0.0000
G01 X3.5000
G03 X2.5000 Y30.0000 I0.0000 J-1.0000
G01 Y16.0000
G01 X0.0000
G03 X-1.0000 Y15.0000 I0.0000 J-1.0000
G01 Y5.0000
G03 X0.0000 Y4.0000 I1.0000 J0.0000
G01 X2.5000
G01 Y0.0000
G03 X3.5000 Y-1.0000 I1.0000 J0.0000
G01 X112.7000
G00 Z5.0000
G00 X0.0000 Y0.0000

M05
