(Projekt back2)
(Erstellt mit Estlcam Version 11 Build 11,221)
(Laufzeit ca. 00:01:21 Stunden)

(Benötigte Werkzeuge:)
(2mm)

M03 S30000
G00 Z5.0000


(Nr. 1 Ausschnitt: Ausschnitt 1)
G00 X55.0700 Y5.0863
G00 Z0.5000
G01 Z0.0000 F600 S30000
G01 Z-1.0000
G01 Y6.1463 F1200
G01 X61.1300
G01 Y5.0863
G01 X55.0700
G01 Z-2.0000 F600
G01 Y6.1463 F1200
G01 X61.1300
G01 Y5.0863
G01 X55.0700
G01 Z-3.0000 F600
G01 Y6.1463 F1200
G01 X61.1300
G01 Y5.0863
G01 X55.0700
G01 Z-4.0000 F600
G01 Y6.1463 F1200
G01 X61.1300
G01 Y5.0863
G01 X55.0700
G01 Z-5.0000 F600
G01 Y6.1463 F1200
G01 X61.1300
G01 Y5.0863
G01 X55.0700
G00 Z5.0000


(Nr. 2 Teil: Teil 1)
G00 X2.5000 Y0.6000 Z5.0000
G00 Z0.5000
G01 Z0.0000 F600
G01 Z-1.0000
G03 X2.5489 Y-0.3090 I2.0633 J-0.3447 F1200
G03 X3.5000 Y-1.0000 I0.9511 J0.3090
G01 X112.7000
G03 X113.7000 Y0.0000 I0.0000 J1.0000
G01 Y0.6000
G01 X116.2000
G03 X117.2000 Y1.6000 I0.0000 J1.0000
G01 Y11.6000
G03 X116.2000 Y12.6000 I-1.0000 J0.0000
G01 X113.7000
G01 Y26.6000
G03 X112.7000 Y27.6000 I-1.0000 J0.0000
G01 X3.5000
G03 X2.5000 Y26.6000 I0.0000 J-1.0000
G01 Y12.6000
G01 X0.0000
G03 X-1.0000 Y11.6000 I0.0000 J-1.0000
G01 Y1.6000
G03 X0.0000 Y0.6000 I1.0000 J0.0000
G01 X2.5000
G01 Z-2.0000 F600
G03 X2.5489 Y-0.3090 I2.0633 J-0.3447 F1200
G03 X3.5000 Y-1.0000 I0.9511 J0.3090
G01 X112.7000
G03 X113.7000 Y0.0000 I0.0000 J1.0000
G01 Y0.6000
G01 X116.2000
G03 X117.2000 Y1.6000 I0.0000 J1.0000
G01 Y11.6000
G03 X116.2000 Y12.6000 I-1.0000 J0.0000
G01 X113.7000
G01 Y26.6000
G03 X112.7000 Y27.6000 I-1.0000 J0.0000
G01 X3.5000
G03 X2.5000 Y26.6000 I0.0000 J-1.0000
G01 Y12.6000
G01 X0.0000
G03 X-1.0000 Y11.6000 I0.0000 J-1.0000
G01 Y1.6000
G03 X0.0000 Y0.6000 I1.0000 J0.0000
G01 X2.5000
G01 Z-3.0000 F600
G03 X2.5489 Y-0.3090 I2.0633 J-0.3447 F1200
G03 X3.5000 Y-1.0000 I0.9511 J0.3090
G01 X112.7000
G03 X113.7000 Y0.0000 I0.0000 J1.0000
G01 Y0.6000
G01 X116.2000
G03 X117.2000 Y1.6000 I0.0000 J1.0000
G01 Y11.6000
G03 X116.2000 Y12.6000 I-1.0000 J0.0000
G01 X113.7000
G01 Y26.6000
G03 X112.7000 Y27.6000 I-1.0000 J0.0000
G01 X3.5000
G03 X2.5000 Y26.6000 I0.0000 J-1.0000
G01 Y12.6000
G01 X0.0000
G03 X-1.0000 Y11.6000 I0.0000 J-1.0000
G01 Y1.6000
G03 X0.0000 Y0.6000 I1.0000 J0.0000
G01 X2.5000
G01 Z-4.0000 F600
G03 X2.5489 Y-0.3090 I2.0633 J-0.3447 F1200
G03 X3.5000 Y-1.0000 I0.9511 J0.3090
G01 X112.7000
G03 X113.7000 Y0.0000 I0.0000 J1.0000
G01 Y0.6000
G01 X116.2000
G03 X117.2000 Y1.6000 I0.0000 J1.0000
G01 Y11.6000
G03 X116.2000 Y12.6000 I-1.0000 J0.0000
G01 X113.7000
G01 Y26.6000
G03 X112.7000 Y27.6000 I-1.0000 J0.0000
G01 X3.5000
G03 X2.5000 Y26.6000 I0.0000 J-1.0000
G01 Y12.6000
G01 X0.0000
G03 X-1.0000 Y11.6000 I0.0000 J-1.0000
G01 Y1.6000
G03 X0.0000 Y0.6000 I1.0000 J0.0000
G01 X2.5000
G01 Z-5.0000 F600
G03 X2.5489 Y-0.3090 I2.0633 J-0.3447 F1200
G03 X3.5000 Y-1.0000 I0.9511 J0.3090
G01 X112.7000
G03 X113.7000 Y0.0000 I0.0000 J1.0000
G01 Y0.6000
G01 X116.2000
G03 X117.2000 Y1.6000 I0.0000 J1.0000
G01 Y11.6000
G03 X116.2000 Y12.6000 I-1.0000 J0.0000
G01 X113.7000
G01 Y26.6000
G03 X112.7000 Y27.6000 I-1.0000 J0.0000
G01 X3.5000
G03 X2.5000 Y26.6000 I0.0000 J-1.0000
G01 Y12.6000
G01 X0.0000
G03 X-1.0000 Y11.6000 I0.0000 J-1.0000
G01 Y1.6000
G03 X0.0000 Y0.6000 I1.0000 J0.0000
G01 X2.5000
G00 Z5.0000
G00 X0.0000 Y0.0000

M05
