(Projekt bottom)
(Erstellt mit Estlcam Version 11 Build 11,221)
(Laufzeit ca. 00:01:22 Stunden)

(Benötigte Werkzeuge:)
(2mm)

M03 S30000
G00 Z5.0000


(Nr. 1 Teil: Teil 1)
G00 X2.5000 Y0.0000
G00 Z0.5000
G01 Z0.0000 F600 S30000
G01 Z-1.0000
G03 X3.5000 Y-1.0000 I1.0000 J0.0000 F1200
G01 X112.7000
G03 X113.7000 Y0.0000 I0.0000 J1.0000
G01 Y4.0000
G01 X115.0000
G03 X116.0000 Y5.0000 I0.0000 J1.0000
G01 Y15.0000
G03 X115.0000 Y16.0000 I-1.0000 J0.0000
G01 X113.7000
G01 Y64.0000
G01 X115.0000
G03 X116.0000 Y65.0000 I0.0000 J1.0000
G01 Y75.0000
G03 X115.0000 Y76.0000 I-1.0000 J0.0000
G01 X113.7000
G01 Y80.0000
G03 X112.7000 Y81.0000 I-1.0000 J0.0000
G01 X3.5000
G03 X2.5000 Y80.0000 I0.0000 J-1.0000
G01 Y76.0000
G01 X0.0000
G03 X-1.0000 Y75.0000 I0.0000 J-1.0000
G01 Y65.0000
G03 X0.0000 Y64.0000 I1.0000 J0.0000
G01 X2.5000
G01 Y16.0000
G01 X0.0000
G03 X-1.0000 Y15.0000 I0.0000 J-1.0000
G01 Y5.0000
G03 X0.0000 Y4.0000 I1.0000 J0.0000
G01 X2.5000
G01 Y0.0000
G01 Z-2.0000 F600
G03 X3.5000 Y-1.0000 I1.0000 J0.0000 F1200
G01 X112.7000
G03 X113.7000 Y0.0000 I0.0000 J1.0000
G01 Y4.0000
G01 X115.0000
G03 X116.0000 Y5.0000 I0.0000 J1.0000
G01 Y15.0000
G03 X115.0000 Y16.0000 I-1.0000 J0.0000
G01 X113.7000
G01 Y64.0000
G01 X115.0000
G03 X116.0000 Y65.0000 I0.0000 J1.0000
G01 Y75.0000
G03 X115.0000 Y76.0000 I-1.0000 J0.0000
G01 X113.7000
G01 Y80.0000
G03 X112.7000 Y81.0000 I-1.0000 J0.0000
G01 X3.5000
G03 X2.5000 Y80.0000 I0.0000 J-1.0000
G01 Y76.0000
G01 X0.0000
G03 X-1.0000 Y75.0000 I0.0000 J-1.0000
G01 Y65.0000
G03 X0.0000 Y64.0000 I1.0000 J0.0000
G01 X2.5000
G01 Y16.0000
G01 X0.0000
G03 X-1.0000 Y15.0000 I0.0000 J-1.0000
G01 Y5.0000
G03 X0.0000 Y4.0000 I1.0000 J0.0000
G01 X2.5000
G01 Y0.0000
G01 Z-3.0000 F600
G03 X3.5000 Y-1.0000 I1.0000 J0.0000 F1200
G01 X112.7000
G03 X113.7000 Y0.0000 I0.0000 J1.0000
G01 Y4.0000
G01 X115.0000
G03 X116.0000 Y5.0000 I0.0000 J1.0000
G01 Y15.0000
G03 X115.0000 Y16.0000 I-1.0000 J0.0000
G01 X113.7000
G01 Y64.0000
G01 X115.0000
G03 X116.0000 Y65.0000 I0.0000 J1.0000
G01 Y75.0000
G03 X115.0000 Y76.0000 I-1.0000 J0.0000
G01 X113.7000
G01 Y80.0000
G03 X112.7000 Y81.0000 I-1.0000 J0.0000
G01 X3.5000
G03 X2.5000 Y80.0000 I0.0000 J-1.0000
G01 Y76.0000
G01 X0.0000
G03 X-1.0000 Y75.0000 I0.0000 J-1.0000
G01 Y65.0000
G03 X0.0000 Y64.0000 I1.0000 J0.0000
G01 X2.5000
G01 Y16.0000
G01 X0.0000
G03 X-1.0000 Y15.0000 I0.0000 J-1.0000
G01 Y5.0000
G03 X0.0000 Y4.0000 I1.0000 J0.0000
G01 X2.5000
G01 Y0.0000
G01 Z-4.0000 F600
G03 X3.5000 Y-1.0000 I1.0000 J0.0000 F1200
G01 X112.7000
G03 X113.7000 Y0.0000 I0.0000 J1.0000
G01 Y4.0000
G01 X115.0000
G03 X116.0000 Y5.0000 I0.0000 J1.0000
G01 Y15.0000
G03 X115.0000 Y16.0000 I-1.0000 J0.0000
G01 X113.7000
G01 Y64.0000
G01 X115.0000
G03 X116.0000 Y65.0000 I0.0000 J1.0000
G01 Y75.0000
G03 X115.0000 Y76.0000 I-1.0000 J0.0000
G01 X113.7000
G01 Y80.0000
G03 X112.7000 Y81.0000 I-1.0000 J0.0000
G01 X3.5000
G03 X2.5000 Y80.0000 I0.0000 J-1.0000
G01 Y76.0000
G01 X0.0000
G03 X-1.0000 Y75.0000 I0.0000 J-1.0000
G01 Y65.0000
G03 X0.0000 Y64.0000 I1.0000 J0.0000
G01 X2.5000
G01 Y16.0000
G01 X0.0000
G03 X-1.0000 Y15.0000 I0.0000 J-1.0000
G01 Y5.0000
G03 X0.0000 Y4.0000 I1.0000 J0.0000
G01 X2.5000
G01 Y0.0000
G00 Z5.0000
G00 X0.0000

M05
