(Projekt side2)
(Erstellt mit Estlcam Version 11 Build 11,221)
(Laufzeit ca. 00:00:52 Stunden)

(Benötigte Werkzeuge:)
(2mm)

M03 S30000
G00 Z5.0000


(Nr. 1 Teil: Teil 1)
G00 X5.0000 Y-1.0000
G00 Z0.5000
G01 Z0.0000 F600 S30000
G01 Z-1.0000
G03 X6.0000 Y0.0000 I0.0000 J1.0000 F1200
G01 Y2.5000
G01 X14.0000
G01 Y0.0000
G03 X15.0000 Y-1.0000 I1.0000 J0.0000
G01 X64.5000
G03 X65.5000 Y0.0000 I0.0000 J1.0000
G01 Y2.5000
G01 X73.5000
G01 Y0.0000
G03 X74.5000 Y-1.0000 I1.0000 J0.0000
G01 X80.0000
G03 X81.0000 Y0.0000 I0.0000 J1.0000
G01 Y5.0000
G03 X80.0000 Y6.0000 I-1.0000 J0.0000
G01 X77.5000
G01 Y14.0000
G01 X80.0000
G03 X81.0000 Y15.0000 I0.0000 J1.0000
G01 Y30.0000
G03 X79.8760 Y30.9923 I-1.0000 J0.0000
G01 X65.4760 Y29.1923
G03 X64.6077 Y28.0760 I0.1240 J-0.9923
G01 X65.0108 Y24.8512
G01 X56.0803 Y23.7349
G01 X55.6772 Y26.9597
G03 X54.5609 Y27.8279 I-0.9923 J-0.1240
G01 X22.7216 Y23.8480
G03 X21.8534 Y22.7317 I0.1240 J-0.9923
G01 X22.1796 Y20.1219
G01 X14.1388 Y19.1168
G01 X13.8126 Y21.7266
G03 X12.6963 Y22.5948 I-0.9923 J-0.1240
G01 X-0.1240 Y20.9923
G03 X-1.0000 Y20.0000 I0.1240 J-0.9923
G01 Y15.0000
G03 X0.0000 Y14.0000 I1.0000 J0.0000
G01 X2.5000
G01 Y6.0000
G01 X0.0000
G03 X-1.0000 Y5.0000 I0.0000 J-1.0000
G01 Y0.0000
G03 X0.0000 Y-1.0000 I1.0000 J0.0000
G01 X5.0000
G01 Z-2.0000 F600
G03 X6.0000 Y0.0000 I0.0000 J1.0000 F1200
G01 Y2.5000
G01 X14.0000
G01 Y0.0000
G03 X15.0000 Y-1.0000 I1.0000 J0.0000
G01 X64.5000
G03 X65.5000 Y0.0000 I0.0000 J1.0000
G01 Y2.5000
G01 X73.5000
G01 Y0.0000
G03 X74.5000 Y-1.0000 I1.0000 J0.0000
G01 X80.0000
G03 X81.0000 Y0.0000 I0.0000 J1.0000
G01 Y5.0000
G03 X80.0000 Y6.0000 I-1.0000 J0.0000
G01 X77.5000
G01 Y14.0000
G01 X80.0000
G03 X81.0000 Y15.0000 I0.0000 J1.0000
G01 Y30.0000
G03 X79.8760 Y30.9923 I-1.0000 J0.0000
G01 X65.4760 Y29.1923
G03 X64.6077 Y28.0760 I0.1240 J-0.9923
G01 X65.0108 Y24.8512
G01 X56.0803 Y23.7349
G01 X55.6772 Y26.9597
G03 X54.5609 Y27.8279 I-0.9923 J-0.1240
G01 X22.7216 Y23.8480
G03 X21.8534 Y22.7317 I0.1240 J-0.9923
G01 X22.1796 Y20.1219
G01 X14.1388 Y19.1168
G01 X13.8126 Y21.7266
G03 X12.6963 Y22.5948 I-0.9923 J-0.1240
G01 X-0.1240 Y20.9923
G03 X-1.0000 Y20.0000 I0.1240 J-0.9923
G01 Y15.0000
G03 X0.0000 Y14.0000 I1.0000 J0.0000
G01 X2.5000
G01 Y6.0000
G01 X0.0000
G03 X-1.0000 Y5.0000 I0.0000 J-1.0000
G01 Y0.0000
G03 X0.0000 Y-1.0000 I1.0000 J0.0000
G01 X5.0000
G01 Z-3.0000 F600
G03 X6.0000 Y0.0000 I0.0000 J1.0000 F1200
G01 Y2.5000
G01 X14.0000
G01 Y0.0000
G03 X15.0000 Y-1.0000 I1.0000 J0.0000
G01 X64.5000
G03 X65.5000 Y0.0000 I0.0000 J1.0000
G01 Y2.5000
G01 X73.5000
G01 Y0.0000
G03 X74.5000 Y-1.0000 I1.0000 J0.0000
G01 X80.0000
G03 X81.0000 Y0.0000 I0.0000 J1.0000
G01 Y5.0000
G03 X80.0000 Y6.0000 I-1.0000 J0.0000
G01 X77.5000
G01 Y14.0000
G01 X80.0000
G03 X81.0000 Y15.0000 I0.0000 J1.0000
G01 Y30.0000
G03 X79.8760 Y30.9923 I-1.0000 J0.0000
G01 X65.4760 Y29.1923
G03 X64.6077 Y28.0760 I0.1240 J-0.9923
G01 X65.0108 Y24.8512
G01 X56.0803 Y23.7349
G01 X55.6772 Y26.9597
G03 X54.5609 Y27.8279 I-0.9923 J-0.1240
G01 X22.7216 Y23.8480
G03 X21.8534 Y22.7317 I0.1240 J-0.9923
G01 X22.1796 Y20.1219
G01 X14.1388 Y19.1168
G01 X13.8126 Y21.7266
G03 X12.6963 Y22.5948 I-0.9923 J-0.1240
G01 X-0.1240 Y20.9923
G03 X-1.0000 Y20.0000 I0.1240 J-0.9923
G01 Y15.0000
G03 X0.0000 Y14.0000 I1.0000 J0.0000
G01 X2.5000
G01 Y6.0000
G01 X0.0000
G03 X-1.0000 Y5.0000 I0.0000 J-1.0000
G01 Y0.0000
G03 X0.0000 Y-1.0000 I1.0000 J0.0000
G01 X5.0000
G01 Z-4.0000 F600
G03 X6.0000 Y0.0000 I0.0000 J1.0000 F1200
G01 Y2.5000
G01 X14.0000
G01 Y0.0000
G03 X15.0000 Y-1.0000 I1.0000 J0.0000
G01 X64.5000
G03 X65.5000 Y0.0000 I0.0000 J1.0000
G01 Y2.5000
G01 X73.5000
G01 Y0.0000
G03 X74.5000 Y-1.0000 I1.0000 J0.0000
G01 X80.0000
G03 X81.0000 Y0.0000 I0.0000 J1.0000
G01 Y5.0000
G03 X80.0000 Y6.0000 I-1.0000 J0.0000
G01 X77.5000
G01 Y14.0000
G01 X80.0000
G03 X81.0000 Y15.0000 I0.0000 J1.0000
G01 Y30.0000
G03 X79.8760 Y30.9923 I-1.0000 J0.0000
G01 X65.4760 Y29.1923
G03 X64.6077 Y28.0760 I0.1240 J-0.9923
G01 X65.0108 Y24.8512
G01 X56.0803 Y23.7349
G01 X55.6772 Y26.9597
G03 X54.5609 Y27.8279 I-0.9923 J-0.1240
G01 X22.7216 Y23.8480
G03 X21.8534 Y22.7317 I0.1240 J-0.9923
G01 X22.1796 Y20.1219
G01 X14.1388 Y19.1168
G01 X13.8126 Y21.7266
G03 X12.6963 Y22.5948 I-0.9923 J-0.1240
G01 X-0.1240 Y20.9923
G03 X-1.0000 Y20.0000 I0.1240 J-0.9923
G01 Y15.0000
G03 X0.0000 Y14.0000 I1.0000 J0.0000
G01 X2.5000
G01 Y6.0000
G01 X0.0000
G03 X-1.0000 Y5.0000 I0.0000 J-1.0000
G01 Y0.0000
G03 X0.0000 Y-1.0000 I1.0000 J0.0000
G01 X5.0000
G00 Z5.0000
G00 X0.0000 Y0.0000

M05
