(Projekt side)
(Erstellt mit Estlcam Version 11 Build 11,221)
(Laufzeit ca. 00:01:08 Stunden)

(Benötigte Werkzeuge:)
(2mm)

M03 S30000
G00 Z5.0000


(Nr. 1 Teil: Teil 1)
G00 X38.3875 Y25.8062
G00 Z0.5000
G01 Z0.0000 F600 S30000
G01 Z-1.0000
G01 X-0.1240 Y20.9923 F1200
G03 X-1.0000 Y20.0000 I0.1240 J-0.9923
G01 Y15.0000
G03 X0.0000 Y14.0000 I1.0000 J0.0000
G01 X2.5000
G01 Y6.0000
G01 X0.0000
G03 X-1.0000 Y5.0000 I0.0000 J-1.0000
G01 Y0.0000
G03 X0.0000 Y-1.0000 I1.0000 J0.0000
G01 X5.0000
G03 X6.0000 Y0.0000 I0.0000 J1.0000
G01 Y2.5000
G01 X14.0000
G01 Y0.0000
G03 X15.0000 Y-1.0000 I1.0000 J0.0000
G01 X33.2302
G00 Z0.0000
G01 X36.2302
G01 Z-1.0000 F600
G01 X64.5000 F1200
G03 X65.5000 Y0.0000 I0.0000 J1.0000
G01 Y2.5000
G01 X73.5000
G01 Y0.0000
G03 X74.5000 Y-1.0000 I1.0000 J0.0000
G01 X80.0000
G03 X81.0000 Y0.0000 I0.0000 J1.0000
G01 Y5.0000
G03 X80.0000 Y6.0000 I-1.0000 J0.0000
G01 X77.5000
G01 Y14.0000
G01 X80.0000
G03 X81.0000 Y15.0000 I0.0000 J1.0000
G01 Y23.5000
G00 Z0.0000
G01 Y26.5000
G01 Z-1.0000 F600
G01 Y30.0000 F1200
G03 X79.8760 Y30.9923 I-1.0000 J0.0000
G01 X41.3644 Y26.1783
G00 Z0.0000
G01 X38.3875 Y25.8062
G00 Z-0.5000
G01 Z-1.0000 F600
G01 Z-2.0000
G01 X-0.1240 Y20.9923 F1200
G03 X-1.0000 Y20.0000 I0.1240 J-0.9923
G01 Y15.0000
G03 X0.0000 Y14.0000 I1.0000 J0.0000
G01 X2.5000
G01 Y6.0000
G01 X0.0000
G03 X-1.0000 Y5.0000 I0.0000 J-1.0000
G01 Y0.0000
G03 X0.0000 Y-1.0000 I1.0000 J0.0000
G01 X5.0000
G03 X6.0000 Y0.0000 I0.0000 J1.0000
G01 Y2.5000
G01 X14.0000
G01 Y0.0000
G03 X15.0000 Y-1.0000 I1.0000 J0.0000
G01 X33.2302
G00 Z0.0000
G01 X36.2302
G00 Z-0.5000
G01 Z-1.0000 F600
G01 Z-2.0000
G01 X64.5000 F1200
G03 X65.5000 Y0.0000 I0.0000 J1.0000
G01 Y2.5000
G01 X73.5000
G01 Y0.0000
G03 X74.5000 Y-1.0000 I1.0000 J0.0000
G01 X80.0000
G03 X81.0000 Y0.0000 I0.0000 J1.0000
G01 Y5.0000
G03 X80.0000 Y6.0000 I-1.0000 J0.0000
G01 X77.5000
G01 Y14.0000
G01 X80.0000
G03 X81.0000 Y15.0000 I0.0000 J1.0000
G01 Y23.5000
G00 Z0.0000
G01 Y26.5000
G00 Z-0.5000
G01 Z-1.0000 F600
G01 Z-2.0000
G01 Y30.0000 F1200
G03 X79.8760 Y30.9923 I-1.0000 J0.0000
G01 X41.3644 Y26.1783
G00 Z0.0000
G01 X38.3875 Y25.8062
G00 Z-1.5000
G01 Z-2.0000 F600
G01 Z-3.0000
G01 X-0.1240 Y20.9923 F1200
G03 X-1.0000 Y20.0000 I0.1240 J-0.9923
G01 Y15.0000
G03 X0.0000 Y14.0000 I1.0000 J0.0000
G01 X2.5000
G01 Y6.0000
G01 X0.0000
G03 X-1.0000 Y5.0000 I0.0000 J-1.0000
G01 Y0.0000
G03 X0.0000 Y-1.0000 I1.0000 J0.0000
G01 X5.0000
G03 X6.0000 Y0.0000 I0.0000 J1.0000
G01 Y2.5000
G01 X14.0000
G01 Y0.0000
G03 X15.0000 Y-1.0000 I1.0000 J0.0000
G01 X33.2302
G00 Z0.0000
G01 X36.2302
G00 Z-1.5000
G01 Z-2.0000 F600
G01 Z-3.0000
G01 X64.5000 F1200
G03 X65.5000 Y0.0000 I0.0000 J1.0000
G01 Y2.5000
G01 X73.5000
G01 Y0.0000
G03 X74.5000 Y-1.0000 I1.0000 J0.0000
G01 X80.0000
G03 X81.0000 Y0.0000 I0.0000 J1.0000
G01 Y5.0000
G03 X80.0000 Y6.0000 I-1.0000 J0.0000
G01 X77.5000
G01 Y14.0000
G01 X80.0000
G03 X81.0000 Y15.0000 I0.0000 J1.0000
G01 Y23.5000
G00 Z0.0000
G01 Y26.5000
G00 Z-1.5000
G01 Z-2.0000 F600
G01 Z-3.0000
G01 Y30.0000 F1200
G03 X79.8760 Y30.9923 I-1.0000 J0.0000
G01 X41.3644 Y26.1783
G00 Z0.0000
G01 X38.3875 Y25.8062
G00 Z-2.5000
G01 Z-3.0000 F600
G01 Z-4.0000
G01 X-0.1240 Y20.9923 F1200
G03 X-1.0000 Y20.0000 I0.1240 J-0.9923
G01 Y15.0000
G03 X0.0000 Y14.0000 I1.0000 J0.0000
G01 X2.5000
G01 Y6.0000
G01 X0.0000
G03 X-1.0000 Y5.0000 I0.0000 J-1.0000
G01 Y0.0000
G03 X0.0000 Y-1.0000 I1.0000 J0.0000
G01 X5.0000
G03 X6.0000 Y0.0000 I0.0000 J1.0000
G01 Y2.5000
G01 X14.0000
G01 Y0.0000
G03 X15.0000 Y-1.0000 I1.0000 J0.0000
G01 X33.2302
G00 Z0.0000
G01 X36.2302
G00 Z-2.5000
G01 Z-3.0000 F600
G01 Z-4.0000
G01 X64.5000 F1200
G03 X65.5000 Y0.0000 I0.0000 J1.0000
G01 Y2.5000
G01 X73.5000
G01 Y0.0000
G03 X74.5000 Y-1.0000 I1.0000 J0.0000
G01 X80.0000
G03 X81.0000 Y0.0000 I0.0000 J1.0000
G01 Y5.0000
G03 X80.0000 Y6.0000 I-1.0000 J0.0000
G01 X77.5000
G01 Y14.0000
G01 X80.0000
G03 X81.0000 Y15.0000 I0.0000 J1.0000
G01 Y23.5000
G00 Z0.0000
G01 Y26.5000
G00 Z-2.5000
G01 Z-3.0000 F600
G01 Z-4.0000
G01 Y30.0000 F1200
G03 X79.8760 Y30.9923 I-1.0000 J0.0000
G01 X41.3644 Y26.1783
G00 Z0.0000
G01 X38.3875 Y25.8062
G00 Z5.0000
G00 X0.0000 Y0.0000

M05
