(Projekt top)
(Erstellt mit Estlcam Version 11 Build 11,221)
(Laufzeit ca. 00:04:25 Stunden)

(Benötigte Werkzeuge:)
(2mm)

M03 S30000
G00 Z5.0000


(Nr. 1 Ausschnitt: Ausschnitt 19)
G00 X15.0850 Y11.5850
G00 Z0.5000
G01 Z0.0000 F600 S30000
G01 Z-1.0000
G01 Y24.0850 F1200
G01 X27.5850
G01 Y11.5850
G01 X15.0850
G01 Z-2.0000 F600
G01 Y24.0850 F1200
G01 X27.5850
G01 Y11.5850
G01 X15.0850
G01 Z-3.0000 F600
G01 Y24.0850 F1200
G01 X27.5850
G01 Y11.5850
G01 X15.0850
G01 Z-4.0000 F600
G01 Y24.0850 F1200
G01 X27.5850
G01 Y11.5850
G01 X15.0850
G00 Z5.0000


(Nr. 2 Ausschnitt: Ausschnitt 7)
G00 X28.1700 Y11.0000 Z5.0000
G00 Z0.5000
G01 Z0.0000 F600
G01 Z-1.0000
G01 X14.5000 F1200
G01 Y24.6700
G01 X28.1700
G01 Y11.0000
G00 Z5.0000


(Nr. 3 Ausschnitt: Ausschnitt 20)
G00 X33.7550 Y11.5850 Z5.0000
G00 Z0.5000
G01 Z0.0000 F600
G01 Z-1.0000
G01 Y24.0850 F1200
G01 X46.2550
G01 Y11.5850
G01 X33.7550
G01 Z-2.0000 F600
G01 Y24.0850 F1200
G01 X46.2550
G01 Y11.5850
G01 X33.7550
G01 Z-3.0000 F600
G01 Y24.0850 F1200
G01 X46.2550
G01 Y11.5850
G01 X33.7550
G01 Z-4.0000 F600
G01 Y24.0850 F1200
G01 X46.2550
G01 Y11.5850
G01 X33.7550
G00 Z5.0000


(Nr. 4 Ausschnitt: Ausschnitt 8)
G00 X46.8400 Y11.0000 Z5.0000
G00 Z0.5000
G01 Z0.0000 F600
G01 Z-1.0000
G01 X33.1700 F1200
G01 Y24.6700
G01 X46.8400
G01 Y11.0000
G00 Z5.0000


(Nr. 5 Ausschnitt: Ausschnitt 9)
G00 X51.8400 Y11.0000 Z5.0000
G00 Z0.5000
G01 Z0.0000 F600
G01 Z-1.0000
G01 Y24.6700 F1200
G01 X65.5100
G01 Y11.0000
G01 X51.8400
G00 Z5.0000


(Nr. 6 Ausschnitt: Ausschnitt 21)
G00 X52.4250 Y11.5850 Z5.0000
G00 Z0.5000
G01 Z0.0000 F600
G01 Z-1.0000
G01 Y24.0850 F1200
G01 X64.9250
G01 Y11.5850
G01 X52.4250
G01 Z-2.0000 F600
G01 Y24.0850 F1200
G01 X64.9250
G01 Y11.5850
G01 X52.4250
G01 Z-3.0000 F600
G01 Y24.0850 F1200
G01 X64.9250
G01 Y11.5850
G01 X52.4250
G01 Z-4.0000 F600
G01 Y24.0850 F1200
G01 X64.9250
G01 Y11.5850
G01 X52.4250
G00 Z5.0000


(Nr. 7 Ausschnitt: Ausschnitt 4)
G00 X51.8400 Y29.6700 Z5.0000
G00 Z0.5000
G01 Z0.0000 F600
G01 Z-1.0000
G01 Y43.3400 F1200
G01 X65.5100
G01 Y29.6700
G01 X51.8400
G00 Z5.0000


(Nr. 8 Ausschnitt: Ausschnitt 18)
G00 X52.4250 Y30.2550 Z5.0000
G00 Z0.5000
G01 Z0.0000 F600
G01 Z-1.0000
G01 Y42.7550 F1200
G01 X64.9250
G01 Y30.2550
G01 X52.4250
G01 Z-2.0000 F600
G01 Y42.7550 F1200
G01 X64.9250
G01 Y30.2550
G01 X52.4250
G01 Z-3.0000 F600
G01 Y42.7550 F1200
G01 X64.9250
G01 Y30.2550
G01 X52.4250
G01 Z-4.0000 F600
G01 Y42.7550 F1200
G01 X64.9250
G01 Y30.2550
G01 X52.4250
G00 Z5.0000


(Nr. 9 Ausschnitt: Ausschnitt 15)
G00 X52.4250 Y48.9250 Z5.0000
G00 Z0.5000
G01 Z0.0000 F600
G01 Z-1.0000
G01 Y61.4250 F1200
G01 X64.9250
G01 Y48.9250
G01 X52.4250
G01 Z-2.0000 F600
G01 Y61.4250 F1200
G01 X64.9250
G01 Y48.9250
G01 X52.4250
G01 Z-3.0000 F600
G01 Y61.4250 F1200
G01 X64.9250
G01 Y48.9250
G01 X52.4250
G01 Z-4.0000 F600
G01 Y61.4250 F1200
G01 X64.9250
G01 Y48.9250
G01 X52.4250
G00 Z5.0000


(Nr. 10 Ausschnitt: Ausschnitt 3)
G00 X65.5100 Y48.3400 Z5.0000
G00 Z0.5000
G01 Z0.0000 F600
G01 Z-1.0000
G01 X51.8400 F1200
G01 Y62.0100
G01 X65.5100
G01 Y48.3400
G00 Z5.0000


(Nr. 11 Ausschnitt: Ausschnitt 10)
G00 X87.4199 Y58.7945 Z5.0000
G00 Z0.5000
G01 Z0.0000 F600
G01 Z-1.0000
G02 X89.0745 Y62.5108 I1.9001 J1.3805 F1200
G02 X91.4656 Y59.2197 I0.2455 J-2.3358
G02 X87.4199 Y58.7945 I-2.1456 J0.9553
G01 Z-2.0000 F600
G02 X89.0745 Y62.5108 I1.9001 J1.3805 F1200
G02 X91.4656 Y59.2197 I0.2455 J-2.3358
G02 X87.4199 Y58.7945 I-2.1456 J0.9553
G01 Z-3.0000 F600
G02 X89.0745 Y62.5108 I1.9001 J1.3805 F1200
G02 X91.4656 Y59.2197 I0.2455 J-2.3358
G02 X87.4199 Y58.7945 I-2.1456 J0.9553
G01 Z-4.0000 F600
G02 X89.0745 Y62.5108 I1.9001 J1.3805 F1200
G02 X91.4656 Y59.2197 I0.2455 J-2.3358
G02 X87.4199 Y58.7945 I-2.1456 J0.9553
G00 Z5.0000


(Nr. 12 Ausschnitt: Ausschnitt 11)
G00 X87.1744 Y35.5497 Z5.0000
G00 Z0.5000
G01 Z0.0000 F600
G01 Z-1.0000
G02 X89.5655 Y38.8408 I2.1456 J0.9553 F1200
G02 X91.2201 Y35.1245 I-0.2455 J-2.3358
G02 X87.1744 Y35.5497 I-1.9001 J1.3805
G01 Z-2.0000 F600
G02 X89.5655 Y38.8408 I2.1456 J0.9553 F1200
G02 X91.2201 Y35.1245 I-0.2455 J-2.3358
G02 X87.1744 Y35.5497 I-1.9001 J1.3805
G01 Z-3.0000 F600
G02 X89.5655 Y38.8408 I2.1456 J0.9553 F1200
G02 X91.2201 Y35.1245 I-0.2455 J-2.3358
G02 X87.1744 Y35.5497 I-1.9001 J1.3805
G01 Z-4.0000 F600
G02 X89.5655 Y38.8408 I2.1456 J0.9553 F1200
G02 X91.2201 Y35.1245 I-0.2455 J-2.3358
G02 X87.1744 Y35.5497 I-1.9001 J1.3805
G00 Z5.0000


(Nr. 13 Ausschnitt: Ausschnitt 12)
G00 X86.9842 Y12.5895 Z5.0000
G00 Z0.5000
G01 Z0.0000 F600
G01 Z-1.0000
G02 X90.2753 Y14.9806 I2.3358 J0.2455 F1200
G02 X90.7005 Y10.9349 I-0.9553 J-2.1456
G02 X86.9842 Y12.5895 I-1.3805 J1.9001
G01 Z-2.0000 F600
G02 X90.2753 Y14.9806 I2.3358 J0.2455 F1200
G02 X90.7005 Y10.9349 I-0.9553 J-2.1456
G02 X86.9842 Y12.5895 I-1.3805 J1.9001
G01 Z-3.0000 F600
G02 X90.2753 Y14.9806 I2.3358 J0.2455 F1200
G02 X90.7005 Y10.9349 I-0.9553 J-2.1456
G02 X86.9842 Y12.5895 I-1.3805 J1.9001
G01 Z-4.0000 F600
G02 X90.2753 Y14.9806 I2.3358 J0.2455 F1200
G02 X90.7005 Y10.9349 I-0.9553 J-2.1456
G02 X86.9842 Y12.5895 I-1.3805 J1.9001
G00 Z5.0000


(Nr. 14 Ausschnitt: Ausschnitt 17)
G00 X33.7550 Y30.2550 Z5.0000
G00 Z0.5000
G01 Z0.0000 F600
G01 Z-1.0000
G01 Y42.7550 F1200
G01 X46.2550
G01 Y30.2550
G01 X33.7550
G01 Z-2.0000 F600
G01 Y42.7550 F1200
G01 X46.2550
G01 Y30.2550
G01 X33.7550
G01 Z-3.0000 F600
G01 Y42.7550 F1200
G01 X46.2550
G01 Y30.2550
G01 X33.7550
G01 Z-4.0000 F600
G01 Y42.7550 F1200
G01 X46.2550
G01 Y30.2550
G01 X33.7550
G00 Z5.0000


(Nr. 15 Ausschnitt: Ausschnitt 5)
G00 X33.1700 Y29.6700 Z5.0000
G00 Z0.5000
G01 Z0.0000 F600
G01 Z-1.0000
G01 Y43.3400 F1200
G01 X46.8400
G01 Y29.6700
G01 X33.1700
G00 Z5.0000


(Nr. 16 Ausschnitt: Ausschnitt 6)
G00 X28.1776 Y29.6700 Z5.0000
G00 Z0.5000
G01 Z0.0000 F600
G01 Z-1.0000
G01 X14.5000 F1200
G01 Y43.3400
G01 X28.1776
G01 Y29.6700
G00 Z5.0000


(Nr. 17 Ausschnitt: Ausschnitt 16)
G00 X27.5850 Y30.2550 Z5.0000
G00 Z0.5000
G01 Z0.0000 F600
G01 Z-1.0000
G01 X15.0850 F1200
G01 Y42.7550
G01 X27.5850
G01 Y30.2550
G01 Z-2.0000 F600
G01 X15.0850 F1200
G01 Y42.7550
G01 X27.5850
G01 Y30.2550
G01 Z-3.0000 F600
G01 X15.0850 F1200
G01 Y42.7550
G01 X27.5850
G01 Y30.2550
G01 Z-4.0000 F600
G01 X15.0850 F1200
G01 Y42.7550
G01 X27.5850
G01 Y30.2550
G00 Z5.0000


(Nr. 18 Ausschnitt: Ausschnitt 1)
G00 X28.1776 Y48.3400 Z5.0000
G00 Z0.5000
G01 Z0.0000 F600
G01 Z-1.0000
G01 X14.5000 F1200
G01 Y62.0100
G01 X28.1776
G01 Y48.3400
G00 Z5.0000


(Nr. 19 Ausschnitt: Ausschnitt 13)
G00 X27.5850 Y48.9250 Z5.0000
G00 Z0.5000
G01 Z0.0000 F600
G01 Z-1.0000
G01 X15.0850 F1200
G01 Y61.4250
G01 X27.5850
G01 Y48.9250
G01 Z-2.0000 F600
G01 X15.0850 F1200
G01 Y61.4250
G01 X27.5850
G01 Y48.9250
G01 Z-3.0000 F600
G01 X15.0850 F1200
G01 Y61.4250
G01 X27.5850
G01 Y48.9250
G01 Z-4.0000 F600
G01 X15.0850 F1200
G01 Y61.4250
G01 X27.5850
G01 Y48.9250
G00 Z5.0000


(Nr. 20 Ausschnitt: Ausschnitt 2)
G00 X33.1700 Y48.3400 Z5.0000
G00 Z0.5000
G01 Z0.0000 F600
G01 Z-1.0000
G01 Y62.0100 F1200
G01 X46.8400
G01 Y48.3400
G01 X33.1700
G00 Z5.0000


(Nr. 21 Ausschnitt: Ausschnitt 14)
G00 X33.7550 Y48.9250 Z5.0000
G00 Z0.5000
G01 Z0.0000 F600
G01 Z-1.0000
G01 Y61.4250 F1200
G01 X46.2550
G01 Y48.9250
G01 X33.7550
G01 Z-2.0000 F600
G01 Y61.4250 F1200
G01 X46.2550
G01 Y48.9250
G01 X33.7550
G01 Z-3.0000 F600
G01 Y61.4250 F1200
G01 X46.2550
G01 Y48.9250
G01 X33.7550
G01 Z-4.0000 F600
G01 Y61.4250 F1200
G01 X46.2550
G01 Y48.9250
G01 X33.7550
G00 Z5.0000


(Nr. 22 Teil: Teil 2)
G00 X2.5000 Y0.0000 Z5.0000
G00 Z0.5000
G01 Z0.0000 F600
G01 Z-1.0000
G03 X3.5000 Y-1.0000 I1.0000 J0.0000 F1200
G01 X112.6700
G03 X113.6700 Y0.0000 I0.0000 J1.0000
G01 Y9.0000
G01 X116.5000
G03 X117.5000 Y10.1402 I-0.0067 J1.0145
G01 Y20.1402
G03 X116.5000 Y21.1402 I-1.0000 J0.0000
G01 X113.6700
G01 Y52.0100
G01 X116.1700
G03 X117.1700 Y53.0100 I0.0000 J1.0000
G01 Y63.0100
G03 X116.1700 Y64.0100 I-1.0000 J0.0000
G01 X113.6700
G01 Y73.0100
G03 X112.6700 Y74.0100 I-1.0000 J0.0000
G01 X3.5000
G03 X2.5000 Y73.0100 I0.0000 J-1.0000
G01 Y64.0100
G01 X0.0000
G03 X-1.0000 Y63.0100 I0.0000 J-1.0000
G01 Y53.0100
G03 X0.0000 Y52.0100 I1.0000 J0.0000
G01 X2.5000
G01 Y21.0000
G01 X0.0000
G03 X-1.0000 Y20.0000 I0.0000 J-1.0000
G01 Y10.0000
G03 X0.0000 Y9.0000 I1.0000 J0.0000
G01 X2.5000
G01 Y0.0000
G01 Z-2.0000 F600
G03 X3.5000 Y-1.0000 I1.0000 J0.0000 F1200
G01 X112.6700
G03 X113.6700 Y0.0000 I0.0000 J1.0000
G01 Y9.0000
G01 X116.5000
G03 X117.5000 Y10.1402 I-0.0067 J1.0145
G01 Y20.1402
G03 X116.5000 Y21.1402 I-1.0000 J0.0000
G01 X113.6700
G01 Y52.0100
G01 X116.1700
G03 X117.1700 Y53.0100 I0.0000 J1.0000
G01 Y63.0100
G03 X116.1700 Y64.0100 I-1.0000 J0.0000
G01 X113.6700
G01 Y73.0100
G03 X112.6700 Y74.0100 I-1.0000 J0.0000
G01 X3.5000
G03 X2.5000 Y73.0100 I0.0000 J-1.0000
G01 Y64.0100
G01 X0.0000
G03 X-1.0000 Y63.0100 I0.0000 J-1.0000
G01 Y53.0100
G03 X0.0000 Y52.0100 I1.0000 J0.0000
G01 X2.5000
G01 Y21.0000
G01 X0.0000
G03 X-1.0000 Y20.0000 I0.0000 J-1.0000
G01 Y10.0000
G03 X0.0000 Y9.0000 I1.0000 J0.0000
G01 X2.5000
G01 Y0.0000
G01 Z-3.0000 F600
G03 X3.5000 Y-1.0000 I1.0000 J0.0000 F1200
G01 X112.6700
G03 X113.6700 Y0.0000 I0.0000 J1.0000
G01 Y9.0000
G01 X116.5000
G03 X117.5000 Y10.1402 I-0.0067 J1.0145
G01 Y20.1402
G03 X116.5000 Y21.1402 I-1.0000 J0.0000
G01 X113.6700
G01 Y52.0100
G01 X116.1700
G03 X117.1700 Y53.0100 I0.0000 J1.0000
G01 Y63.0100
G03 X116.1700 Y64.0100 I-1.0000 J0.0000
G01 X113.6700
G01 Y73.0100
G03 X112.6700 Y74.0100 I-1.0000 J0.0000
G01 X3.5000
G03 X2.5000 Y73.0100 I0.0000 J-1.0000
G01 Y64.0100
G01 X0.0000
G03 X-1.0000 Y63.0100 I0.0000 J-1.0000
G01 Y53.0100
G03 X0.0000 Y52.0100 I1.0000 J0.0000
G01 X2.5000
G01 Y21.0000
G01 X0.0000
G03 X-1.0000 Y20.0000 I0.0000 J-1.0000
G01 Y10.0000
G03 X0.0000 Y9.0000 I1.0000 J0.0000
G01 X2.5000
G01 Y0.0000
G01 Z-4.0000 F600
G03 X3.5000 Y-1.0000 I1.0000 J0.0000 F1200
G01 X112.6700
G03 X113.6700 Y0.0000 I0.0000 J1.0000
G01 Y9.0000
G01 X116.5000
G03 X117.5000 Y10.1402 I-0.0067 J1.0145
G01 Y20.1402
G03 X116.5000 Y21.1402 I-1.0000 J0.0000
G01 X113.6700
G01 Y52.0100
G01 X116.1700
G03 X117.1700 Y53.0100 I0.0000 J1.0000
G01 Y63.0100
G03 X116.1700 Y64.0100 I-1.0000 J0.0000
G01 X113.6700
G01 Y73.0100
G03 X112.6700 Y74.0100 I-1.0000 J0.0000
G01 X3.5000
G03 X2.5000 Y73.0100 I0.0000 J-1.0000
G01 Y64.0100
G01 X0.0000
G03 X-1.0000 Y63.0100 I0.0000 J-1.0000
G01 Y53.0100
G03 X0.0000 Y52.0100 I1.0000 J0.0000
G01 X2.5000
G01 Y21.0000
G01 X0.0000
G03 X-1.0000 Y20.0000 I0.0000 J-1.0000
G01 Y10.0000
G03 X0.0000 Y9.0000 I1.0000 J0.0000
G01 X2.5000
G01 Y0.0000
G00 Z5.0000
G00 X0.0000

M05
